!!!SOCIAL_FUNCTION:	dream songs
!!!PDT:	1913
!!!OTL: No_151_Heaps_of_Clouds.krn
!!!REG: Great_Lakes
!!!LANG: Non-Tone
!!!LING_GROUP: Algonquin
**kern	**kern
*staff2	*staff1
*clefF4	*clefG2
*k[b-e-a-d-g-]	*k[b-e-a-d-g-]
*M3/4	*M3/4
4r	8a-/
.	24b-\LL
.	24b-\
.	24a-\JJ
=1	=1
12GG-^/	2a-/
12r	.
12GG-/	.
12GG-^/	.
12r	.
12GG-/	.
12GG-^/	8a-/L
12r	.
.	8f/J
12GG-/	.
=2||	=2||
*M2/4	*M2/4
2r	4d-/
.	4B-/
=3	=3
2r	4d-/
.	12f/L
.	12f/
.	12e-/J
=4	=4
2r	8.d-/L
.	16d-/Jk
.	[4d-/
=5	=5
2r	2d-/]
=6	=6
2r	8a-/L
.	8a-/J
.	8b-/L
.	8a-/J
=7||	=7||
*M3/4	*M3/4
2.r	2a-/
.	8a-/L
.	8f/J
=8||	=8||
*M2/4	*M2/4
2r	4d-/
.	4B-/
=9	=9
2r	4d-/
.	12f/L
.	12f/
.	12e-/J
=10	=10
2r	8.d-/L
.	16d-/Jk
.	4d-/
=11	=11
2r	2d-/
=12||	=12||
*M3/4	*M3/4
2.r	8a-/L
.	8a-/J
.	8a-/L
.	8a-/J
.	8f/L
.	8f/J
=13	=13
2.r	2d-/
*	*clefF4
.	8B-\L
.	8B-\J
=14||	=14||
*M2/4	*M2/4
2r	4A-\
.	4F\
=15	=15
2r	8A-\L
.	8A-\J
.	8B-\L
.	8A-\J
=16	=16
2r	2A-\
=17||	=17||
*M3/4	*M3/4
2.r	8A-\L
.	8A-\J
.	8F\L
.	8E-\J
.	4D-\
=18	=18
2.r	8F\L
.	8A-\J
.	4F\
.	8F\L
.	8E-\J
=19||	=19||
*M2/4	*M2/4
2r	8.D-\L
.	16D-\Jk
.	4D-\
=20	=20
2r	2D-\
==	==
*-	*-
